src/24x24/places/folder-gruvbox-mix-purple-music-open.svg

<?xml version="1.0" encoding="UTF-8"?>
<svg width="24" height="24" version="1" xmlns="http://www.w3.org/2000/svg">
 <rect x="2" y="9.5" width="20" height="12" rx="1" ry="1" opacity=".2"/>
 <path d="m2 17c0 0.554 0.446 1 1 1h18c0.554 0 1-0.446 1-1v-11c0-0.554-0.446-1-1-1h-9c-1.5 0-2-2-3.5-2h-5.5c-0.554 0-1 0.446-1 1" fill="#924f79"/>
 <rect x="2" y="10.5" width="20" height="10" rx="1" ry="1" opacity=".2"/>
 <rect x="4" y="7" width="16" height="8" rx="1" ry="1" fill="#E6DCBB"/>
 <rect x="2" y="11" width="20" height="10" rx="1" ry="1" fill="#d3869b"/>
 <path d="m3 3c-0.554 0-1 0.446-1 1v0.5c0-0.554 0.446-1 1-1h5.5c1.5 0 2 2 3.5 2h9c0.554 0 1 0.446 1 1v-0.5c0-0.554-0.446-1-1-1h-9c-1.5 0-2-2-3.5-2z" fill="#E6DCBB" opacity=".1"/>
 <path d="m11 17.088c-0.161-0.057-0.33-0.087-0.5-0.088-0.828 0-1.5 0.672-1.5 1.5 0 0.829 0.672 1.5 1.5 1.5s1.5-0.671 1.5-1.5v-3.5h3v2.088c-0.161-0.057-0.33-0.087-0.5-0.088-0.828 0-1.5 0.672-1.5 1.5 0 0.829 0.672 1.5 1.5 1.5s1.5-0.671 1.5-1.5v-5c0-0.277-0.334-0.5-0.75-0.5h-3.5c-0.416 0-0.75 0.223-0.75 0.5" fill="#423B3A"/>
</svg>

<svg xmlns="http://www.w3.org/2000/svg" width="24" height="24" version="1">
 <rect style="opacity:0.2" width="20" height="12" x="2" y="9.5" rx="1" ry="1"/>
 <path style="fill:#924f79" d="M 2,17 C 2,17.554 2.446,18 3,18 H 21 C 21.554,18 22,17.554 22,17 V 6 C 22,5.446 21.554,5 21,5 H 12 C 10.5,5 10,3 8.5,3 H 3 C 2.446,3 2,3.446 2,4"/>
 <rect style="opacity:0.2" width="20" height="10" x="2" y="10.5" rx="1" ry="1"/>
 <rect style="fill:#E6DCBB" width="16" height="8" x="4" y="7" rx="1" ry="1"/>
 <rect style="fill:#d3869b" width="20" height="10" x="2" y="11" rx="1" ry="1"/>
 <path style="opacity:0.1;fill:#E6DCBB" d="M 3,3 C 2.446,3 2,3.446 2,4 V 4.5 C 2,3.946 2.446,3.5 3,3.5 H 8.5 C 10,3.5 10.5,5.5 12,5.5 H 21 C 21.554,5.5 22,5.946 22,6.5 V 6 C 22,5.446 21.554,5 21,5 H 12 C 10.5,5 10,3 8.5,3 Z"/>
 <path style="fill:#423B3A" d="M 11,17.088 C 10.839,17.031 10.67,17.001 10.5,17 9.672,17 9,17.672 9,18.5 9,19.329 9.672,20 10.5,20 11.328,20 12,19.329 12,18.5 V 15 H 15 V 17.088 C 14.839,17.031 14.67,17.001 14.5,17 13.672,17 13,17.672 13,18.5 13,19.329 13.672,20 14.5,20 15.328,20 16,19.329 16,18.5 V 13.5 C 16,13.223 15.666,13 15.25,13 H 11.75 C 11.334,13 11,13.223 11,13.5"/>
</svg>
